X:127
T:Nola
C:F. Arndt
N:Tabledited by Mike Stangeland
L:1/8
Q:1/4=140
M:2/2
K:D
z8 |: (3DEFB3/2D/ E3/2F/A3/2D/ | (3EFBD3/2(3E (3FAF(3EDB, | (3EF^Ge3/2E/ F3/2G/d3/2E/ | 
(3F^GcE3/2(3F (3GBA(3GFE | (3A,B,CA3/2A,/ B,3/2C/G3/2A,/ | (3B,CFA,3/2(3B, (3CED(3CB,A, | 
|1 (3DFB(3AFD (3CDE(3B^GA | (3dfc(3dfb (3afd(3BAF :|2 (3dBA(3FED (3BAF(3EDB, |] A,zAz dzz2 | 
K:G
|: D3^D E3=F | F3/2G/^G3/2A/ eze2 | F3/2G/^G3/2A/ fzf2 | e3/2f/e3/2(3B (3dc^G(3BAF | 
|1 D3^D E3=F | F3/2G/^G3/2A/ G/^c3/2c3/2B/ | A3/2^A/G3/2^G/ ^c/g3/2gf | e3/2(3dcBA (3^GBA(3FE^D :|
|2 d3/2(3=FGBd c3/2(3CEGc | (3cgcG3/2A/ B2f3/2e/ | dzf3/2e/ dzB2 | (3Aed(3cBA G2z2 |] 


